source/os_mxlinux.svg

<?xml version="1.0" encoding="UTF-8" standalone="no"?>
<!-- Created with Inkscape (http://www.inkscape.org/) -->

<svg
   width="400"
   height="400"
   viewBox="0 0 375.00001 375.00003"
   id="svg2"
   version="1.1"
   inkscape:version="1.1.2 (0a00cf5339, 2022-02-04)"
   sodipodi:docname="os_mxlinux.svg"
   inkscape:export-filename="../icons/os_mxlinux.png"
   inkscape:export-xdpi="30.719999"
   inkscape:export-ydpi="30.719999"
   xmlns:inkscape="http://www.inkscape.org/namespaces/inkscape"
   xmlns:sodipodi="http://sodipodi.sourceforge.net/DTD/sodipodi-0.dtd"
   xmlns="http://www.w3.org/2000/svg"
   xmlns:svg="http://www.w3.org/2000/svg"
   xmlns:rdf="http://www.w3.org/1999/02/22-rdf-syntax-ns#"
   xmlns:cc="http://creativecommons.org/ns#"
   xmlns:dc="http://purl.org/dc/elements/1.1/">
  <defs
     id="defs4" />
  <sodipodi:namedview
     id="base"
     pagecolor="#21252e"
     bordercolor="#bebebe"
     borderopacity="1"
     inkscape:pageopacity="0"
     inkscape:pageshadow="2"
     inkscape:zoom="2.5057325"
     inkscape:cx="212.71225"
     inkscape:cy="248.43035"
     inkscape:document-units="px"
     inkscape:current-layer="svg2"
     showgrid="false"
     inkscape:window-width="1942"
     inkscape:window-height="1082"
     inkscape:window-x="556"
     inkscape:window-y="321"
     inkscape:window-maximized="0"
     units="px"
     inkscape:showpageshadow="false"
     showguides="true"
     inkscape:guide-bbox="true"
     inkscape:snap-global="true"
     inkscape:snap-bbox="true"
     inkscape:snap-others="false"
     fit-margin-top="0"
     fit-margin-left="0"
     fit-margin-right="0"
     fit-margin-bottom="0"
     inkscape:pagecheckerboard="0"
     width="400px"
     inkscape:bbox-paths="true"
     inkscape:bbox-nodes="true"
     inkscape:snap-nodes="true">
    <sodipodi:guide
       position="93.750005,375.00002"
       orientation="-1,0"
       id="guide839"
       inkscape:label=""
       inkscape:locked="false"
       inkscape:color="rgb(0,0,255)" />
    <sodipodi:guide
       position="281.25001,375.00002"
       orientation="-1,0"
       id="guide841"
       inkscape:label=""
       inkscape:locked="false"
       inkscape:color="rgb(0,0,255)" />
    <sodipodi:guide
       position="0,281.25001"
       orientation="0,1"
       id="guide843"
       inkscape:label=""
       inkscape:locked="false"
       inkscape:color="rgb(0,0,255)" />
    <sodipodi:guide
       position="0,93.750005"
       orientation="0,1"
       id="guide845"
       inkscape:label=""
       inkscape:locked="false"
       inkscape:color="rgb(0,0,255)" />
  </sodipodi:namedview>
  <metadata
     id="metadata7">
    <rdf:RDF>
      <cc:Work
         rdf:about="">
        <dc:format>image/svg+xml</dc:format>
        <dc:type
           rdf:resource="http://purl.org/dc/dcmitype/StillImage" />
      </cc:Work>
    </rdf:RDF>
  </metadata>
  <path
     id="rect943"
     style="display:inline;opacity:1;fill:#ecf0f1;fill-opacity:1;stroke-width:0.999999"
     d="M 135.7168,100 C 115.92956,100 100,115.92956 100,135.7168 V 264.2832 C 100,284.07044 115.92956,300 135.7168,300 H 264.2832 C 284.07044,300 300,284.07044 300,264.2832 V 135.7168 C 300,115.92956 284.07044,100 264.2832,100 Z m 113.5664,39.21484 10.67188,9.15039 -44.60547,52.00391 29.50977,34.38281 5.31445,-6.38867 19.20312,23.06641 19.20117,23.0664 h -38.40429 -15.85938 -22.53711 -38.9082 -61.44726 l 30.72656,-36.30078 30.7207,-36.30664 11.25,13.29688 6.62695,-7.72852 -45.38476,-52.88281 17.66601,-15.16406 43.05664,50.16992 z m -49.27148,79.03321 -6.69727,7.80468 10.27539,12.14258 19.36328,22.875 6.79688,-8.16601 z"
     transform="matrix(0.937503,0,0,0.937503,-0.001321,4.95e-4)" />
</svg>

<?xml version="1.0" encoding="UTF-8" standalone="no"?>
<!-- Created with Inkscape (http://www.inkscape.org/) -->

<svg
   width="400"
   height="400"
   viewBox="0 0 375.00001 375.00003"
   id="svg2"
   version="1.1"
   inkscape:version="1.1.2 (0a00cf5339, 2022-02-04)"
   sodipodi:docname="os_mxlinux.svg"
   inkscape:export-filename="../icons/os_mxlinux.png"
   inkscape:export-xdpi="30.719999"
   inkscape:export-ydpi="30.719999"
   xmlns:inkscape="http://www.inkscape.org/namespaces/inkscape"
   xmlns:sodipodi="http://sodipodi.sourceforge.net/DTD/sodipodi-0.dtd"
   xmlns="http://www.w3.org/2000/svg"
   xmlns:svg="http://www.w3.org/2000/svg"
   xmlns:rdf="http://www.w3.org/1999/02/22-rdf-syntax-ns#"
   xmlns:cc="http://creativecommons.org/ns#"
   xmlns:dc="http://purl.org/dc/elements/1.1/">
  <defs
     id="defs4" />
  <sodipodi:namedview
     id="base"
     pagecolor="#21252e"
     bordercolor="#bebebe"
     borderopacity="1"
     inkscape:pageopacity="0"
     inkscape:pageshadow="2"
     inkscape:zoom="2.5057325"
     inkscape:cx="212.31317"
     inkscape:cy="248.43035"
     inkscape:document-units="px"
     inkscape:current-layer="g4016"
     showgrid="false"
     inkscape:window-width="1942"
     inkscape:window-height="1082"
     inkscape:window-x="556"
     inkscape:window-y="321"
     inkscape:window-maximized="0"
     units="px"
     inkscape:showpageshadow="false"
     showguides="true"
     inkscape:guide-bbox="true"
     inkscape:snap-global="true"
     inkscape:snap-bbox="true"
     inkscape:snap-others="false"
     fit-margin-top="0"
     fit-margin-left="0"
     fit-margin-right="0"
     fit-margin-bottom="0"
     inkscape:pagecheckerboard="0"
     width="400px"
     inkscape:bbox-paths="true"
     inkscape:bbox-nodes="true"
     inkscape:snap-nodes="true">
    <sodipodi:guide
       position="93.750005,375.00002"
       orientation="-1,0"
       id="guide839"
       inkscape:label=""
       inkscape:locked="false"
       inkscape:color="rgb(0,0,255)" />
    <sodipodi:guide
       position="281.25001,375.00002"
       orientation="-1,0"
       id="guide841"
       inkscape:label=""
       inkscape:locked="false"
       inkscape:color="rgb(0,0,255)" />
    <sodipodi:guide
       position="0,281.25001"
       orientation="0,1"
       id="guide843"
       inkscape:label=""
       inkscape:locked="false"
       inkscape:color="rgb(0,0,255)" />
    <sodipodi:guide
       position="0,93.750005"
       orientation="0,1"
       id="guide845"
       inkscape:label=""
       inkscape:locked="false"
       inkscape:color="rgb(0,0,255)" />
  </sodipodi:namedview>
  <metadata
     id="metadata7">
    <rdf:RDF>
      <cc:Work
         rdf:about="">
        <dc:format>image/svg+xml</dc:format>
        <dc:type
           rdf:resource="http://purl.org/dc/dcmitype/StillImage" />
      </cc:Work>
    </rdf:RDF>
  </metadata>
  <g
     inkscape:label="Layer 1"
     inkscape:groupmode="layer"
     id="layer1"
     style="opacity:0.96"
     transform="translate(-39.167521,88.250195)">
    <path
       style="fill:#000000"
       d=""
       id="path4134"
       inkscape:connector-curvature="0" />
    <g
       transform="translate(-141.01382,-425.49872)"
       style="display:inline"
       inkscape:label="debian vector"
       id="layer3">
      <g
         id="g4573"
         transform="translate(131.00657,-3.8976736)">
        <g
           id="g4627"
           style="opacity:0.99">
          <g
             id="g4740"
             transform="translate(-34.291185,268.4348)">
            <g
               transform="translate(380.29592,62.962549)"
               id="g4109">
              <g
                 transform="matrix(0.77230011,0,0,0.77230011,-239.76484,-6.9998595)"
                 style="fill:#ffffff;fill-opacity:1"
                 id="g4077">
                <g
                   id="layer1-5"
                   inkscape:label="Layer 1"
                   transform="matrix(1.2948334,0,0,1.2948334,-524.75052,-387.7468)">
                  <g
                     transform="translate(105.76257,-1.6247732)"
                     id="g6445">
                    <g
                       id="g6415"
                       transform="matrix(3.0715506,0,0,3.0715506,-521.15168,-1035.6235)">
                      <g
                         transform="translate(126.06579,-105.54595)"
                         id="g4016">
                        <g
                           id="g4182"
                           transform="matrix(0.61815127,0,0,0.61815127,205.2279,224.79962)" />
                        <path
                           id="rect943"
                           style="fill:#ecf0f1;fill-opacity:1;stroke-width:0.999999"
                           d="M 135.7168 100 C 115.92956 100 100 115.92956 100 135.7168 L 100 264.2832 C 100 284.07044 115.92956 300 135.7168 300 L 264.2832 300 C 284.07044 300 300 284.07044 300 264.2832 L 300 135.7168 C 300 115.92956 284.07044 100 264.2832 100 L 135.7168 100 z M 249.2832 139.21484 L 259.95508 148.36523 L 215.34961 200.36914 L 244.85938 234.75195 L 250.17383 228.36328 L 269.37695 251.42969 L 288.57812 274.49609 L 250.17383 274.49609 L 234.31445 274.49609 L 211.77734 274.49609 L 172.86914 274.49609 L 111.42188 274.49609 L 142.14844 238.19531 L 172.86914 201.88867 L 184.11914 215.18555 L 190.74609 207.45703 L 145.36133 154.57422 L 163.02734 139.41016 L 206.08398 189.58008 L 249.2832 139.21484 z M 200.01172 218.24805 L 193.31445 226.05273 L 203.58984 238.19531 L 222.95312 261.07031 L 229.75 252.9043 L 200.01172 218.24805 z "
                           transform="matrix(0.30522045,0,0,0.30522045,122.53467,546.18785)" />
                      </g>
                    </g>
                  </g>
                </g>
              </g>
            </g>
          </g>
        </g>
      </g>
    </g>
  </g>
</svg>
